X:10
T:Russian Dance,The. ASH.10
M:2/4
L:1/8
Q:1/4=100
S:Harrison & Wall MS,Ashover,Derbyshire,1762-75
R:.Country dance
O:England
A:Derbyshire
Z:vmp.Chris Partington, 2003
K:C
g/f/ | ecBd | c C2 F | EGAc | Bd2 g/f/ |!
ecBd | c C2 F | EG eB | c3 :|!
|:B/c/ | dBGf | e g2 (3a/g/f/ | ecBd | g G2F |!
EGcE | F a2 g/f/ | ecGB |c3  :|

